my_site/img/getintouch/phone.svg

<svg width="73" height="72" viewBox="0 0 73 72" fill="none" xmlns="http://www.w3.org/2000/svg">
<g clip-path="url(#clip0)">
<path d="M56.929 38.9947C56.5775 38.6426 56.16 38.3632 55.7004 38.1726C55.2408 37.982 54.7482 37.8839 54.2506 37.8839C53.7531 37.8839 53.2604 37.982 52.8008 38.1726C52.3413 38.3632 51.9238 38.6426 51.5722 38.9947L45.5335 45.0334C42.7339 44.1999 37.5097 42.3057 34.1987 38.9947C30.8876 35.6836 28.9934 30.4594 28.16 27.6598L34.1987 21.6211C34.5508 21.2696 34.8301 20.8521 35.0207 20.3925C35.2113 19.9329 35.3094 19.4403 35.3094 18.9427C35.3094 18.4452 35.2113 17.9525 35.0207 17.4929C34.8301 17.0333 34.5508 16.6159 34.1987 16.2643L19.0451 1.11076C18.6936 0.758646 18.2761 0.479298 17.8165 0.288701C17.3569 0.0981045 16.8642 0 16.3667 0C15.8692 0 15.3765 0.0981045 14.9169 0.288701C14.4573 0.479298 14.0398 0.758646 13.6883 1.11076L3.41418 11.3849C1.97459 12.8245 1.16387 14.802 1.19418 16.8212C1.28131 22.2159 2.70954 40.9533 17.4767 55.7204C32.2439 70.4876 50.9813 71.912 56.3797 72.003H56.4858C58.4861 72.003 60.3765 71.215 61.8085 69.783L72.0826 59.5088C72.4347 59.1573 72.7141 58.7398 72.9047 58.2802C73.0953 57.8207 73.1934 57.328 73.1934 56.8304C73.1934 56.3329 73.0953 55.8402 72.9047 55.3807C72.7141 54.9211 72.4347 54.5036 72.0826 54.1521L56.929 38.9947ZM56.4479 64.4224C51.72 64.3428 35.5435 63.0737 22.8335 50.3599C10.0818 37.6081 8.84674 21.3749 8.77097 16.7417L16.3667 9.14594L26.1635 18.9427L21.2651 23.8411C20.8198 24.2861 20.4924 24.835 20.3125 25.4382C20.1326 26.0414 20.1058 26.68 20.2346 27.2961C20.3256 27.7318 22.5494 38.0627 28.8381 44.3515C35.1268 50.6402 45.4578 52.864 45.8934 52.9549C46.5092 53.0874 47.1484 53.0627 47.7522 52.8833C48.356 52.7039 48.9049 52.3755 49.3485 51.9283L54.2506 47.0299L64.0474 56.8267L56.4479 64.4224Z" fill="#0D5C63"/>
</g>
<defs>
<clipPath id="clip0">
<rect width="72" height="72" fill="white" transform="translate(0.5)"/>
</clipPath>
</defs>
</svg>

<svg width="73" height="72" fill="none" xmlns="http://www.w3.org/2000/svg"><g clip-path="url(#clip0)"><path d="M56.929 38.995a3.785 3.785 0 00-5.357 0l-6.039 6.038c-2.8-.833-8.023-2.727-11.334-6.038-3.311-3.311-5.206-8.536-6.039-11.335l6.039-6.039a3.784 3.784 0 000-5.357L19.045 1.111a3.784 3.784 0 00-5.357 0L3.414 11.385a7.571 7.571 0 00-2.22 5.436c.087 5.395 1.516 24.132 16.283 38.9C32.244 70.487 50.98 71.911 56.38 72.002h.106c2 0 3.89-.788 5.323-2.22l10.274-10.274a3.785 3.785 0 000-5.357L56.929 38.995zm-.481 25.427c-4.728-.08-20.904-1.348-33.614-14.062C10.082 37.608 8.847 21.375 8.77 16.742l7.596-7.596 9.796 9.797-4.898 4.898a3.789 3.789 0 00-1.03 3.455c.09.436 2.314 10.767 8.603 17.056 6.289 6.288 16.62 8.512 17.055 8.603a3.754 3.754 0 003.456-1.027l4.902-4.898 9.796 9.797-7.6 7.595z" fill="#0D5C63"/></g><defs><clipPath id="clip0"><path fill="#fff" transform="translate(.5)" d="M0 0h72v72H0z"/></clipPath></defs></svg>
